X: 563
%
U:~=!turn!
T: Sailor's Hornpipe
C:
O:Scotland
B:Keith Norman MacDonald : "The Skye collection of the best reels & strathspeys extant" : 1887
Z:Ralph Palmer
R:Hornpipe
M:C
L:1/8
K:D
fe &A2 | {/e}dcdA FAdf | edcB A2 g2 | fdad bdad | edcB A2 fe & x4 Agfe | {/e}dcdA FAdf |
edcB A2 g2 | fafd egec | x2 f2 d2 & d2 [F2d2] [F2d2] :: fg (af) af d2 ga | (bg) bg e2 (fg) |
(af) af (bg) af | (ed) cB A2 fe | {/e}dcdA FAdf | edcB A2 g2 | fafd egec | x2 f2 d2 & d2 [F2d2] [F2d2] :|


